X:81
T:Saraband Sett Of Waltzes No.1. Le4.081
B:L.Leadley MS#4 c1850
Z:Village Music Project, 2016 Steve Mansfield
M:3/4
L:1/4
N:Edward Payne's Sett of Saraband Quadrilles
Q:3/4=60
K:Em
e2e | g2g | c2c | e2e |ddd | dcd | e2e | c2c |
e2e | g2g | c2c | e2e |(ed)d | (de)f | (gb)a | g2z ||
GGG | GAB | ccc | cde |(g^f)=f | def | a2a | g2g |
GGG | GAB | ccc | cde |edB | dcA | gg^f | (=fe)d ||
a2a | age | f2f | fc^c |d^cd | (_ba)g | f2e | c^Bc |
a2a | age | f2f | c2^c |d[dd'][cc'] | (_ba)g | g2g | f2 !segno! |]

